X: 433
T:Fisherman's Lilt
M:4/4
L:1/8
R:Reel
N:Posted to the woodenflute mailing list August 2001
Z:Pat Higgins
Z:abc headers added Steve Mansfield
K:Amix
dB|A3B A2de|f3e dBB2|dBAF ABAF|EGFE DB,B2,|
|FAAB A2de|3(fga fe dBB2|dBAF ABdf|afeg fdde:||
|f2df edBc|defd BAFE|DFF2 DFF2|ABdf ed 3(Bcd|
|fedf edBc|dcdA BAFB|A3B defa|afeg fdde:||

